images/icons/search.svg

<svg fill="#0e4ed5" height="24pt" viewBox="0 0 24 24" width="24pt" xmlns="http://www.w3.org/2000/svg"><path d="m23.234375 21.859375-5.714844-5.941406c1.46875-1.746094 2.273438-3.941407 2.273438-6.226563 0-5.34375-4.34375-9.691406-9.6875-9.691406s-9.691407 4.347656-9.691407 9.691406c0 5.339844 4.347657 9.6875 9.691407 9.6875 2.003906 0 3.917969-.605468 5.550781-1.753906l5.753906 5.988281c.242188.25.566406.386719.914063.386719.328125 0 .636719-.125.875-.351562.5-.484376.515625-1.285157.035156-1.789063zm-13.128906-19.332031c3.949219 0 7.160156 3.214844 7.160156 7.164062 0 3.949219-3.210937 7.160156-7.160156 7.160156s-7.164063-3.210937-7.164063-7.160156c0-3.949218 3.214844-7.164062 7.164063-7.164062zm0 0"/></svg>

<?xml version="1.0" encoding="UTF-8"?>
<svg xmlns="http://www.w3.org/2000/svg" xmlns:xlink="http://www.w3.org/1999/xlink" width="24pt" height="24pt" viewBox="0 0 24 24" version="1.1" fill="rgb(14, 78, 213)">
<g id="surface1">
<path d="M 23.234375 21.859375 L 17.519531 15.917969 C 18.988281 14.171875 19.792969 11.976562 19.792969 9.691406 C 19.792969 4.347656 15.449219 0 10.105469 0 C 4.761719 0 0.414062 4.347656 0.414062 9.691406 C 0.414062 15.03125 4.761719 19.378906 10.105469 19.378906 C 12.109375 19.378906 14.023438 18.773438 15.65625 17.625 L 21.410156 23.613281 C 21.652344 23.863281 21.976562 24 22.324219 24 C 22.652344 24 22.960938 23.875 23.199219 23.648438 C 23.699219 23.164062 23.714844 22.363281 23.234375 21.859375 Z M 10.105469 2.527344 C 14.054688 2.527344 17.265625 5.742188 17.265625 9.691406 C 17.265625 13.640625 14.054688 16.851562 10.105469 16.851562 C 6.15625 16.851562 2.941406 13.640625 2.941406 9.691406 C 2.941406 5.742188 6.15625 2.527344 10.105469 2.527344 Z M 10.105469 2.527344 "/>
</g>
</svg>
